X:113
T:William Taylor's Table Top Hornpipe
Z:Jack Campin, http://www.campin.me.uk/
M:4/4
L:1/8
Q:1/4=130
C:Dave Shepherd 
S:Variation by Jo Downie
N:Play this really slow and sexy
N:original key
K:GDor
G2 G2  G>AB>G|A>BA>G F2D2|d4     c>dc>B|A>GF>G A>Bc>A|
G2 G2  G>AB>G|A>BA>G F2D2|d>cB>A G>BA>F|G>BA>F G4   :|
d>BG>B d2 d2 |c>AF>A c4  |B>AG>F G2 G>B|A>GF>G A>Bc>A|
d>BG>B d2 d2 |c>AF>A c4  |B>AG>F G>BA>F|G>BA>F G4   :|

